!!!COM:	Compere, Loyset
!!!CDT:	~1445///-1518/08/16
!!!OTL:	Sourdes regretz avironez mon cueur
!!!AGN:	Song; Chanson
!!!SCT:	Com3039
!!!SCA:	Com3039
!!!voices:	3
**kern	**kern	**kern
*staff3	*staff2	*staff1
*Ivox	*Ivox	*Ivox
*I"Bassus	*I"Tenor	*I"Superius
*I'B	*I'T	*I'S
*clefF4	*clefGv2	*clefG2
*k[b-]	*k[b-]	*k[b-]
*M2/1	*M2/1	*M2/1
*met(C|)	*met(C|)	*met(C|)
=1-	=1-	=1-
0r	0G	0r
=2	=2	=2
0GG	1G	0r
.	1G	.
=3	=3	=3
1GG	[0B-	0d
1GG	.	.
=4	=4	=4
1BB-	0B-]	1d
2r	.	1d
[2BB-	.	.
=5	=5	=5
4BB-]	1r	0f
4C	.	.
2D	.	.
2BB-	1B-	.
[2D	.	.
=6	=6	=6
4D]	1.d	1r
4C	.	.
4BB-	.	.
4AA	.	.
1BB-	.	1f
.	4c	.
.	4B-	.
=7	=7	=7
1AA	1c	1.a
1D	1d	.
.	.	4g
.	.	4f
=8	=8	=8
1C	1e	2.g
.	.	4a
2BB-	2d	2b-
[2C	[2c	[2a
=9	=9	=9
2C]	4c]	4a]
.	4B-	4g
1D	4A	4f
.	4G	4e
.	2B-	2d
[2C	2c	[2a
=10	=10	=10
2C]	1G	4a]
.	.	4g
2BB-	.	1g
2C	1A	.
2D	.	2f#i
=11	=11	=11
2.E-	[0G	0g
4D	.	.
2C	.	.
4BB-	.	.
4AA	.	.
=12	=12	=12
[0GG	0G]	1r
.	.	1b-
=13	=13	=13
0GG]	1r	1.b-
.	1G	.
.	.	4a
.	.	4g
=14	=14	=14
0r	2.F	2.a
.	4G	4b-
.	2A	2cc
.	[2G	[2b-
=15	=15	=15
1G	2G]	2b-]
.	4F	4a
.	4E	4g
1A	2.D	[1f
.	4E	.
=16	=16	=16
2D	2.F	1f]
1F	.	.
.	4G	.
.	2A	1r
4E	[2B-	.
4D	.	.
=17	=17	=17
1C	2B-]	1r
.	2A	.
1BB-	[1B-	1d
=18	=18	=18
2r	1B-]	2d
2.BB-	.	2d
.	1r	2d
4C	.	.
4D	.	2d
4E	.	.
=19	=19	=19
2F	1r	2.c
2.C	.	.
.	.	4d
.	1G	4e
4D	.	4f
[2E	.	[2g
=20	=20	=20
4E]	2G	2g]
4D	.	.
2BB-	2G	1f
1C	2G	.
.	2G	2e
=21	=21	=21
2r	2.F	1f
2.FF	.	.
.	4G	.
.	4A	1r
4GG	4B-	.
2AA	[2c	.
=22	=22	=22
2BB-	2c]	1r
2D	1B-	.
1C	.	1c
.	2A	.
=23	=23	=23
2.BB-	0B-	2.d
4C	.	4e
2D	.	2f
[2E-i	.	[2g
=24	=24	=24
4E-]	0r	4g]
4D	.	4f
1D	.	4e
.	.	4d
.	.	1e
2C#i	.	.
=25	=25	=25
1D	1F	1d
1r	2.G	1g
.	4A	.
=26	=26	=26
0r	2B-	2g
.	2c	2g
.	4c	2g
.	4B-	.
.	4A	2g
.	4G	.
=27	=27	=27
1D	1A	1f
2E	2G	2g
[2F	[2c	[2a
=28	=28	=28
2F]	2c]	2a]
4E	2c	4g
4D	.	4f
1C	2c	1e
.	2c	.
=29	=29	=29
2.G	0B-	2r
.	.	2.d
4F	.	.
1D	.	.
.	.	4e
.	.	4f
.	.	4g
=30	=30	=30
2C	2c	2a
1BB-	1d	1b-
2C	4c	4a
.	4B-	4g
=31	=31	=31
!LO:TX:Z=8:t=s.c.	!LO:TX:Z=8:t=s.c.	!LO:TX:Z=8:t=s.c.
00D	00A	00f
=32	=32	=32
0BB-	1r	1r
.	1d	1b-
=33	=33	=33
1BB-	1.d	1.b-
1BB-	.	.
.	4c	4a
.	4B-	4g
=34	=34	=34
0F	1c	1a
.	1c	1a
=35	=35	=35
2.G	[0B-	1g
4F	.	.
2D	.	2f
[2E-i	.	[2g
=36	=36	=36
2E-]	0B-]	2g]
4D	.	4f
4C	.	4e
[1BB-	.	[1d
=37	=37	=37
1BB-]	1r	1d]
1BB-	1B-	1d
=38	=38	=38
1BB-	1B-	1d
2BB-	1B-	1d
[2GG	.	.
=39	=39	=39
2GG]	1B-	1d
2AA	.	.
1BB-	1B-	1d
=40	=40	=40
4FF	1A	2.c
4GG	.	.
4AA	.	.
4BB-	.	4d
2.C	2G	4e
.	.	4f
.	2c	[2g
4E	.	.
=41	=41	=41
1D	4B-	4g]
.	4A	4f
.	4G	1f
.	4F	.
1C	1G	.
.	.	2e
=42	=42	=42
2r	0F	1f
2.D	.	.
.	.	2r
4C	.	.
4BB-	.	2f
4AA	.	.
=43	=43	=43
2BB-	1r	1g
2C	.	.
1AA	1F	1a
=44	=44	=44
1GG	1G	2b-
.	.	4a
.	.	4g
1D	1A	[1f
=45	=45	=45
2.BB-	0B-	1f]
4C	.	.
2D	.	2r
[2E-i	.	2b-
=46	=46	=46
4E-]	2r	1b-
4D	.	.
2.BB-	2d	.
.	1d	2b-
4C	.	.
4D	.	[2a
4Eni	.	.
=47	=47	=47
1F	2d	2a]
.	1c	2a
4C	.	1g
4D	.	.
4E	2c	.
4F	.	.
=48	=48	=48
2.G	0B-	2r
.	.	2.d
4F	.	.
1D	.	.
.	.	4e
.	.	4f
.	.	4g
=49	=49	=49
1C	1c	4a
.	.	4b-
.	.	4cc
.	.	4a
2G	2.d	2b-
2F	.	[2a
.	4c	.
=50	=50	=50
2G	2B-	4a]
.	.	4g
2C	2c	1g
1D	1A	.
.	.	2f#i
=51	=51	=51
0GGl	0Gl	0gl
==	==	==
*-	*-	*-
!!!RDF**kern: l=long note in original notation
!!!RDF**kern: i=editorial accidental
!!!ENC:	Megan K. Eagen
!!!END:	2014/02/23/
!!!EED:	Jesse Rodin
!!!EEV:	2014/02/23/
!!!ONB:	Translated from MusicXML and edited on 2014/02/23/ by Craig Sapp
!!muse2ps: C^@{COM}^i2I150v95,95,150Q16
